images/content/johnson-solids/triangular-dipyramid.svg

<?xml version="1.0" encoding="UTF-8"?>
<svg xmlns="http://www.w3.org/2000/svg" xmlns:xlink="http://www.w3.org/1999/xlink" width="114pt" height="193pt" viewBox="0 0 114 193" version="1.2">
<g id="surface1">
<path style=" stroke:none;fill-rule:evenodd;fill:rgb(73.164368%,64.668274%,71.409607%);fill-opacity:1;" d="M 2.125 93.667969 L 112.839844 94.867188 L 55.5625 191.566406 L 2.125 93.667969 "/>
<path style="fill:none;stroke-width:3.438;stroke-linecap:butt;stroke-linejoin:miter;stroke:rgb(13.729858%,12.159729%,12.548828%);stroke-opacity:1;stroke-miterlimit:4;" d="M 21.25 993.320312 L 1128.398438 981.328125 L 555.625 14.335938 Z M 21.25 993.320312 " transform="matrix(0.1,0,0,-0.1,0,193)"/>
<path style=" stroke:none;fill-rule:evenodd;fill:rgb(19.882202%,17.877197%,19.509888%);fill-opacity:1;" d="M 51.707031 120.609375 L 2.125 93.667969 L 55.5625 191.566406 L 51.707031 120.609375 "/>
<path style="fill:none;stroke-width:3.438;stroke-linecap:butt;stroke-linejoin:miter;stroke:rgb(13.729858%,12.159729%,12.548828%);stroke-opacity:1;stroke-miterlimit:4;" d="M 517.070312 723.90625 L 21.25 993.320312 L 555.625 14.335938 Z M 517.070312 723.90625 " transform="matrix(0.1,0,0,-0.1,0,193)"/>
<path style=" stroke:none;fill-rule:evenodd;fill:rgb(69.561768%,50.733948%,50.878906%);fill-opacity:1;" d="M 2.125 93.667969 L 112.839844 94.867188 L 55.652344 1.640625 L 2.125 93.667969 "/>
<path style="fill:none;stroke-width:3.438;stroke-linecap:butt;stroke-linejoin:miter;stroke:rgb(13.729858%,12.159729%,12.548828%);stroke-opacity:1;stroke-miterlimit:4;" d="M 21.25 993.320312 L 1128.398438 981.328125 L 556.523438 1913.59375 Z M 21.25 993.320312 " transform="matrix(0.1,0,0,-0.1,0,193)"/>
<path style=" stroke:none;fill-rule:evenodd;fill:rgb(30.194092%,30.747986%,50.927734%);fill-opacity:1;" d="M 51.707031 120.609375 L 2.125 93.667969 L 55.652344 1.640625 L 51.707031 120.609375 "/>
<path style="fill:none;stroke-width:3.438;stroke-linecap:butt;stroke-linejoin:miter;stroke:rgb(13.729858%,12.159729%,12.548828%);stroke-opacity:1;stroke-miterlimit:4;" d="M 517.070312 723.90625 L 21.25 993.320312 L 556.523438 1913.59375 Z M 517.070312 723.90625 " transform="matrix(0.1,0,0,-0.1,0,193)"/>
<path style=" stroke:none;fill-rule:evenodd;fill:rgb(90.769958%,57.6828%,23.139954%);fill-opacity:1;" d="M 112.839844 94.867188 L 51.707031 120.609375 L 55.5625 191.566406 L 112.839844 94.867188 "/>
<path style="fill:none;stroke-width:3.438;stroke-linecap:butt;stroke-linejoin:miter;stroke:rgb(13.729858%,12.159729%,12.548828%);stroke-opacity:1;stroke-miterlimit:4;" d="M 1128.398438 981.328125 L 517.070312 723.90625 L 555.625 14.335938 Z M 1128.398438 981.328125 " transform="matrix(0.1,0,0,-0.1,0,193)"/>
<path style=" stroke:none;fill-rule:evenodd;fill:rgb(97.410583%,87.747192%,65.101624%);fill-opacity:1;" d="M 112.839844 94.867188 L 51.707031 120.609375 L 55.652344 1.640625 L 112.839844 94.867188 "/>
<path style="fill:none;stroke-width:3.438;stroke-linecap:butt;stroke-linejoin:miter;stroke:rgb(13.729858%,12.159729%,12.548828%);stroke-opacity:1;stroke-miterlimit:4;" d="M 1128.398438 981.328125 L 517.070312 723.90625 L 556.523438 1913.59375 Z M 1128.398438 981.328125 " transform="matrix(0.1,0,0,-0.1,0,193)"/>
</g>
</svg>

<svg xmlns="http://www.w3.org/2000/svg" width="152" height="193pt" viewBox="0 0 114 193" version="1.2"><path style="stroke:none;fill-rule:evenodd;fill:#bba5b6;fill-opacity:1" d="m2.125 93.668 110.715 1.2-57.278 96.698L2.126 93.668"/><path style="fill:none;stroke-width:3.438;stroke-linecap:butt;stroke-linejoin:miter;stroke:#231f20;stroke-opacity:1;stroke-miterlimit:4" d="m21.25 993.32 1107.148-11.992L555.625 14.336Zm0 0" transform="matrix(.1 0 0 -.1 0 193)"/><path style="stroke:none;fill-rule:evenodd;fill:#332e32;fill-opacity:1" d="M51.707 120.61 2.125 93.667l53.438 97.898-3.856-70.957"/><path style="fill:none;stroke-width:3.438;stroke-linecap:butt;stroke-linejoin:miter;stroke:#231f20;stroke-opacity:1;stroke-miterlimit:4" d="M517.07 723.906 21.25 993.32 555.625 14.336Zm0 0" transform="matrix(.1 0 0 -.1 0 193)"/><path style="stroke:none;fill-rule:evenodd;fill:#b18182;fill-opacity:1" d="m2.125 93.668 110.715 1.2L55.652 1.64 2.125 93.668"/><path style="fill:none;stroke-width:3.438;stroke-linecap:butt;stroke-linejoin:miter;stroke:#231f20;stroke-opacity:1;stroke-miterlimit:4" d="m21.25 993.32 1107.148-11.992-571.875 932.266Zm0 0" transform="matrix(.1 0 0 -.1 0 193)"/><path style="stroke:none;fill-rule:evenodd;fill:#4d4e82;fill-opacity:1" d="M51.707 120.61 2.125 93.667 55.652 1.641l-3.945 118.968"/><path style="fill:none;stroke-width:3.438;stroke-linecap:butt;stroke-linejoin:miter;stroke:#231f20;stroke-opacity:1;stroke-miterlimit:4" d="M517.07 723.906 21.25 993.32l535.273 920.274Zm0 0" transform="matrix(.1 0 0 -.1 0 193)"/><path style="stroke:none;fill-rule:evenodd;fill:#e7933b;fill-opacity:1" d="M112.84 94.867 51.707 120.61l3.855 70.957 57.278-96.699"/><path style="fill:none;stroke-width:3.438;stroke-linecap:butt;stroke-linejoin:miter;stroke:#231f20;stroke-opacity:1;stroke-miterlimit:4" d="M1128.398 981.328 517.07 723.906l38.555-709.57Zm0 0" transform="matrix(.1 0 0 -.1 0 193)"/><path style="stroke:none;fill-rule:evenodd;fill:#f8e0a6;fill-opacity:1" d="M112.84 94.867 51.707 120.61 55.652 1.641l57.188 93.226"/><path style="fill:none;stroke-width:3.438;stroke-linecap:butt;stroke-linejoin:miter;stroke:#231f20;stroke-opacity:1;stroke-miterlimit:4" d="M1128.398 981.328 517.07 723.906l39.453 1189.688Zm0 0" transform="matrix(.1 0 0 -.1 0 193)"/></svg>
